icons/lines/candle-two.svg

<svg xmlns="http://www.w3.org/2000/svg" width="24" height="24" viewBox="0 0 24 24" fill="none" stroke="currentColor" stroke-width="2" stroke-linecap="round" stroke-linejoin="round">
  <path d="M13 14.5c1.1 0 2 .5 2 2v2c0 1.5-.9 2-2 2H7c-1.1 0-2-.5-2-2v-2c0-1.5.9-2 2-2z" />
  <path d="M17 3.5c1.1 0 2 .5 2 2v2c0 1.5-.9 2-2 2h-6c-1.1 0-2-.5-2-2v-2c0-1.5.9-2 2-2z" />
  <path d="M22 17.5h-7" />
  <path d="M22 6.5h-3" />
  <path d="M5 17.5H2" />
  <path d="M9 6.5H2" />
</svg>

<svg xmlns="http://www.w3.org/2000/svg" width="24" height="24" viewBox="0 0 24 24" fill="none" stroke="currentColor" stroke-width="2" stroke-linecap="round" stroke-linejoin="round" >
  <path d="M22 17.5H15" stroke-miterlimit="10"/>
  <path d="M5 17.5H2" stroke-miterlimit="10"/>
  <path d="M22 6.5H19" stroke-miterlimit="10"/>
  <path d="M9 6.5H2" stroke-miterlimit="10"/>
  <path d="M7 14.5H13C14.1 14.5 15 15 15 16.5V18.5C15 20 14.1 20.5 13 20.5H7C5.9 20.5 5 20 5 18.5V16.5C5 15 5.9 14.5 7 14.5Z" stroke-miterlimit="10"/>
  <path d="M11 3.5H17C18.1 3.5 19 4 19 5.5V7.5C19 9 18.1 9.5 17 9.5H11C9.9 9.5 9 9 9 7.5V5.5C9 4 9.9 3.5 11 3.5Z" stroke-miterlimit="10"/>
  </svg>
